X: 1
T: Hasidic Waltz
S: Marianne Cygnel Oct 1999
R: waltz
M: 3/4
L: 1/4
K: Gm
D \
| "Gm"BAG | "D7"AG>^F | "Eb"GB>G | "D7"^F/E/D>D \
| "Gm"G/G/GG | "F"AGA | "Bb"B3- | B2G |
| "Cm"c/c/cc | "Gm"BB2 | "D7"ABA | "Gm"GD2 \
| BAG | "D7"AG^F | "Gm"G3- | G2 :|
|: c/d/ \
| "Gm"ddd | f=ed | "Bbdim"^c>BA/G/ | "Gm"A/B/G2 \
|1 ddd | "A7"^cAc | "D"d3- | d2 \
:|2 "Gm"d^cB | d^cB | "D"A/G/AB | "D7"A3 ||
|: "Bb(Gm)"dcB | "D"AD/^F/A | "D7"c d/c/ B/A/ | "Gm"G/B/ d/B/ G \
|1 "Bb"BBB | "F7"cBc | "Bb"d3- | d2 B/c/ \
:|2 "Eb"BAG | "D7"AG^F/A/ | "Gm"G3- | G2z |]

%%sep 1 1 500
%%sep 1 1 500

